X:1
T:Title
%%score ( 1 2 ) { 3 | 4 }
L:1/8
M:3/4
K:C
V:1 treble nm="Grand Piano, Unnamed-000"
V:2 treble 
V:3 bass nm="Choir Pad, Aspinwall"
V:4 bass 
V:1
 [EG]2 [Ec]2 [Ec]2 | [Ec]2 [Ec]4 | G2 E2 D2 | C2 [EG]4 | G2 [Fd]2 [Fd]2 | [Fd]2 [Fd]2 [Ec]2 | %6
w: By~Charles~Hutchinson~Gabriel~(1856\-1932) * *||||||
 [FB]2 [Ec]2 [Gc]2 | [Fc]2 [Ec]4 | [EG]2 [Ge]2 [Ge]2 | [Ge]2 [^Ge]2 [Gd]2 | [EB]2 [Ec]2 [Ec]2 | %11
w: |||||
 [Ec]2 c2 B2 | [_EA]2 [=EG]2 [DA]2 | [GB]2 [Gc]2 [Gd]2 | [Ge]2 [^Fd]2 [FA]2 | [FB]2 [Ec]4- | %16
w: |||||
 [Ec]4 z2 |] %17
w: |
V:2
 x6 | x6 | x6 | x6 | x6 | x6 | x6 | x6 | x6 | x6 | x6 | z2 F4 | x6 | x6 | x6 | x6 | x6 |] %17
V:3
 C2 G,2 G,2 | G,2 G,4 | G,2 E,2 D,2 | C,2 B,4 | B,2 B,2 B,2 | B,2 B,2[K:treble] C2 | D2 C2 G,2 | %7
 A,2 G,4 | C2 C2 C2 | C2 B,2 B,2 | D2 C2 C2 | _B,2 A,2 =B,2 | C2 C2[K:treble] C2 | D2 C2 B,2 | %14
 C2 C2 C[K:bass]D | DG, G,4- | G,4 z2 |] %17
V:4
 C,2 C,2 C,2 | C,2 C,4 | z6 | z2 [G,,G,]4 | G,2 G,2 G,2 | G,2 G,4 | G,2 C,2 C,2 | C,2 C,4 | %8
 C,2 C,2 C,2 | C,2 E,2 E,2 | ^G,2 A,2 A,2 | G,2 F,4 | ^F,2 G,2 F,2 | F,2 E,2 D,2 | C,2 D,2 D,2 | %15
 G,,2 C,4- | C,4 z2 |] %17

